X: 347
T:Sasha
C:M-14
M:C
L:1/4
K:Dm                           % key
U: s=!head-s!
"Dm"AAz2|AAz2|Az"A7"Az|"Dm"Azz2|:"Dm"AFA2|AFA2|
w:Sa-sha Sa-sha Ras Dva Tri (Right right right, left left left,
"A7"EEA>G|FDD2:| |:"Gm"B2B2|"Dm"A3 A/B/|"A7"AGFE|Dz"<X"sA z:|
w:both both both * knee knee knee) La la la la la la la la la la HEY!
|:[K:D]"D"F2A2|d3e|dcBA|"Em"G3F|"A"E2A2|c3d|
["Optional 1st ending"cBAG|"D"F3E:|[2cABc|d2z2|]

